X: 1
T: Polska efter Manne Stj\"arnsten
T: Sl\"angpolska fr\aan Torp
O: Sweden
Z: 2009 John Chambers <jc:trillian.mit.edu>
S: handwritten MS of unknown origin
M: 3/4
L: 1/8
K: G
D \
| "G"G2 G>(A B)>c | "G"d2 d>(B "Am"c)>A | "D7"f2 f>(A c)>B | "G"g2 g>(B d)>B \
| "G"G2 G>(A B)>c | "G"d2 d>(B "Am"c)>A | "D7"f2 f>(e c)>A | "G"G2 G3 :|
|: g \
| "G"b2 G>(B d)>(g | "D7"f)>(A d)>(f a2) | "D7"c'2 A>(f a)>(f | "G"g2) G>(B d)>(g \
| "G"b2) G>(B d)>(g | "D7"D7""f)>(A d)>(f a2) | "D7"c'2 [AD]>(f a)>(f | "G"g2) g3 :|

%%sep 1 1 500

